Internet-is-hard/flexbox/images/two.svg

<svg width="300" height="300" xmlns="http://www.w3.org/2000/svg"><g fill="none" fill-rule="evenodd"><path fill="#F09A9D" d="M0 0h300v300H0z"/><path d="M166.38 167.04h-.8c-2.32.24-4.64 0-6.96-.08H143.9l.72-1.04c2.16-3.12 5.76-4.64 8.88-6.8.24-.24.56-.4.88-.64l.8-.64c.32-.24.64-.4.88-.64.56-.4 1.12-.72 1.68-1.28l.96-.72c1.52-1.2 2.96-2.56 4.16-4.16l.88-.96c1.28-1.52 2.32-3.12 3.04-4.64l.48-1.04c1.28-3.44 1.68-7.28.64-10.8l-.32-1.28-.48-1.2c-.24-.4-.32-.8-.56-1.2l-.56-1.12c-.4-.88-.96-1.6-1.52-2.32l-.64-.72c-1.28-1.52-2.96-2.32-4.8-3.2l-1.04-.4c-2.16-.88-4.56-.96-6.8-.96h-1.04c-1.52-.24-2.8-.16-4.32.08-.24 0-.64.08-1.04.16-.72.08-1.36.16-2 .4l-.88.32c-1.52.56-2.96 1.28-4.16 2.16l-.96.72-.96.88-.88.96c-1.92 2.48-3.52 5.36-4.08 8.48l-.16 1.04c-.24.88-.4 1.68.16 2.56 1.36 2 3.84 1.6 5.84 2 .4 0 .8.08 1.2 0 1.68 0 3.12-.32 4-1.84l.56-1.92c.4-1.28.96-2.48 1.92-3.44l.48-.4.48-.32c2.16-1.04 4.72-1.2 7.04-.96l.8.24c.88.24 1.6.72 2.24 1.44l.56.56c.24.32.32.56.4.72.08.16.24.32.32.56.4.72.56 1.52.56 2.4.08.24 0 .64-.08 1.2-.24 1.2-.72 2.08-1.28 2.96l-.64.88c-.64.88-1.36 1.68-2.24 2.4l-.8.72c-.88.88-1.76 1.52-2.64 2.24l-.96.72c-.8.72-1.76 1.44-2.8 2.16l-.96.72c-3.12 2.32-6.4 4.24-8.96 7.2l-.48.56-.72.96c-2 2.56-3.04 5.6-3.6 8.8l-.16 1.2c0 .4-.08.8-.08 1.2-.88 3.2 0 6.96 4.08 6.32.4 0 .8-.08 1.2-.08 1.28-.08 2.48-.32 3.68-.08h3.68c.72.08 1.44.08 2.32.08h3.52c3.84-.08 7.6.16 11.36.24h.96c1.28.08 2.56.08 3.6-.24.88.08 1.52 0 1.92-.4l.4-.56c.4-1.84.32-3.84.32-5.68-.08-.56.08-1.12.16-1.68v-.8c0-.8-.32-1.36-.96-1.76l-.72-.24zm-3.28 6.48c-9.04 0-18-.16-27.04-.16-.56 0-.8-.24-.8-.8v-.16c-.08-2.32.48-4.48 1.52-6.56 1.04-1.92 2.4-3.52 3.92-5.04.88-.88 1.68-1.44 2.56-2.08.24-.24.56-.4.88-.64 1.84-1.04 3.2-2.4 4.88-3.68 2.16-1.52 4.16-2.64 6-4.48l.96-.88c1.6-1.6 2.96-3.28 4.16-5.2l.56-1.04c.24-.4.32-.8.4-1.04.24-.4.32-.8.4-1.04l.24-1.28c.56-3.76-.72-8-3.92-10.24l-1.2-.64c-.4-.24-.8-.4-1.12-.48-2.16-.72-4.4-.8-6.56-.8-.72 0-1.44.08-2.16.08-3.44.88-6.64 2.8-8.56 5.6l-.64 1.2c-.4.88-.56 1.6-.56 2.24 0 1.04-1.6 1.04-1.6 0 0-.72.16-1.36.4-2.08.24-.72.56-1.36.88-2 2.16-3.52 5.84-5.92 9.92-6.56.4 0 .72-.08 1.28-.08 3.44.08 7.2.08 10.32 1.92.24.08.64.32 1.04.64 3.12 2.56 4.4 6.64 4.08 10.56l-.16 1.12-.24 1.12c-.08.24-.16.64-.4 1.2-.08.32-.24.72-.48 1.12l-.56 1.12c-1.28 2.48-2.96 4.4-4.88 6.24l-.8.8-1.84 1.52c-3.12 1.92-5.6 4.08-8.48 6.08l-.96.64c-.88.56-1.68 1.28-2.56 2-2.8 2.64-5.12 6.08-5.12 10 8.72 0 17.52.16 26.24.16 1.04 0 1.04 1.6 0 1.6z" fill="#5D6063"/></g></svg>

<?xml version="1.0" encoding="UTF-8" standalone="no"?>
<svg width="300px" height="300px" viewBox="0 0 300 300" version="1.1" xmlns="http://www.w3.org/2000/svg" xmlns:xlink="http://www.w3.org/1999/xlink">
    <!-- Generator: Sketch 3.7.1 (28215) - http://www.bohemiancoding.com/sketch -->
    <title>two</title>
    <desc>Created with Sketch.</desc>
    <defs></defs>
    <g id="Page-1" stroke="none" stroke-width="1" fill="none" fill-rule="evenodd">
        <g id="example-mockup" transform="translate(-473.000000, -361.000000)">
            <g id="two" transform="translate(473.000000, 361.000000)">
                <rect id="Rectangle-70-Copy" fill="#F09A9D" x="0" y="0" width="300" height="300"></rect>
                <path d="M166.38,167.04 L165.58,167.04 C163.26,167.28 160.94,167.04 158.62,166.96 L143.9,166.96 L144.62,165.92 C146.78,162.8 150.38,161.28 153.5,159.12 C153.74,158.88 154.06,158.72 154.38,158.48 L155.18,157.84 C155.5,157.6 155.82,157.44 156.06,157.2 C156.62,156.8 157.18,156.48 157.74,155.92 L158.7,155.2 C160.22,154 161.66,152.64 162.86,151.04 L163.74,150.08 C165.02,148.56 166.06,146.96 166.78,145.44 L167.26,144.4 C168.54,140.96 168.94,137.12 167.9,133.6 L167.58,132.32 L167.1,131.12 C166.86,130.72 166.78,130.32 166.54,129.92 L165.98,128.8 C165.58,127.92 165.02,127.2 164.46,126.48 L163.82,125.76 C162.54,124.24 160.86,123.44 159.02,122.56 L157.98,122.16 C155.82,121.28 153.42,121.2 151.18,121.2 L150.14,121.2 C148.62,120.96 147.34,121.04 145.82,121.28 C145.58,121.28 145.18,121.36 144.78,121.44 C144.06,121.52 143.42,121.6 142.78,121.84 L141.9,122.16 C140.38,122.72 138.94,123.44 137.74,124.32 L136.78,125.04 L135.82,125.92 L134.94,126.88 C133.02,129.36 131.42,132.24 130.86,135.36 L130.7,136.4 C130.46,137.28 130.3,138.08 130.86,138.96 C132.22,140.96 134.7,140.56 136.7,140.96 C137.1,140.96 137.5,141.04 137.9,140.96 C139.58,140.96 141.02,140.64 141.9,139.12 L142.46,137.2 C142.86,135.92 143.42,134.72 144.38,133.76 L144.86,133.36 L145.34,133.04 C147.5,132 150.06,131.84 152.38,132.08 L153.18,132.32 C154.06,132.56 154.78,133.04 155.42,133.76 L155.98,134.32 C156.22,134.64 156.3,134.88 156.38,135.04 C156.46,135.2 156.62,135.36 156.7,135.6 C157.1,136.32 157.26,137.12 157.26,138 C157.34,138.24 157.26,138.64 157.18,139.2 C156.94,140.4 156.46,141.28 155.9,142.16 L155.26,143.04 C154.62,143.92 153.9,144.72 153.02,145.44 L152.22,146.16 C151.34,147.04 150.46,147.68 149.58,148.4 L148.62,149.12 C147.82,149.84 146.86,150.56 145.82,151.28 L144.86,152 C141.74,154.32 138.46,156.24 135.9,159.2 L135.42,159.76 L134.7,160.72 C132.7,163.28 131.66,166.32 131.1,169.52 L130.94,170.72 C130.94,171.12 130.86,171.52 130.86,171.92 C129.98,175.12 130.86,178.88 134.94,178.24 C135.34,178.24 135.74,178.16 136.14,178.16 C137.42,178.08 138.62,177.84 139.82,178.08 L143.5,178.08 C144.22,178.16 144.94,178.16 145.82,178.16 L149.34,178.16 C153.18,178.08 156.94,178.32 160.7,178.4 L161.66,178.4 C162.94,178.48 164.22,178.48 165.26,178.16 C166.14,178.24 166.78,178.16 167.18,177.76 L167.58,177.2 C167.98,175.36 167.9,173.36 167.9,171.52 C167.82,170.96 167.98,170.4 168.06,169.84 L168.06,169.04 C168.06,168.24 167.74,167.68 167.1,167.28 L166.38,167.04 Z M163.1,173.52 C154.06,173.52 145.1,173.36 136.06,173.36 C135.5,173.36 135.26,173.12 135.26,172.56 L135.26,172.4 C135.18,170.08 135.74,167.92 136.78,165.84 C137.82,163.92 139.18,162.32 140.7,160.8 C141.58,159.92 142.38,159.36 143.26,158.72 C143.5,158.48 143.82,158.32 144.14,158.08 C145.98,157.04 147.34,155.68 149.02,154.4 C151.18,152.88 153.18,151.76 155.02,149.92 L155.98,149.04 C157.58,147.44 158.94,145.76 160.14,143.84 L160.7,142.8 C160.94,142.4 161.02,142 161.1,141.76 C161.34,141.36 161.42,140.96 161.5,140.72 L161.74,139.44 C162.3,135.68 161.02,131.44 157.82,129.2 L156.62,128.56 C156.22,128.32 155.82,128.16 155.5,128.08 C153.34,127.36 151.1,127.28 148.94,127.28 C148.22,127.28 147.5,127.36 146.78,127.36 C143.34,128.24 140.14,130.16 138.22,132.96 L137.58,134.16 C137.18,135.04 137.02,135.76 137.02,136.4 C137.02,137.44 135.42,137.44 135.42,136.4 C135.42,135.68 135.58,135.04 135.82,134.32 C136.06,133.6 136.38,132.96 136.7,132.32 C138.86,128.8 142.54,126.4 146.62,125.76 C147.02,125.76 147.34,125.68 147.9,125.68 C151.34,125.76 155.1,125.76 158.22,127.6 C158.46,127.68 158.86,127.92 159.26,128.24 C162.38,130.8 163.66,134.88 163.34,138.8 L163.18,139.92 L162.94,141.04 C162.86,141.28 162.78,141.68 162.54,142.24 C162.46,142.56 162.3,142.96 162.06,143.36 L161.5,144.48 C160.22,146.96 158.54,148.88 156.62,150.72 L155.82,151.52 L153.98,153.04 C150.86,154.96 148.38,157.12 145.5,159.12 L144.54,159.76 C143.66,160.32 142.86,161.04 141.98,161.76 C139.18,164.4 136.86,167.84 136.86,171.76 C145.58,171.76 154.38,171.92 163.1,171.92 C164.14,171.92 164.14,173.52 163.1,173.52 L163.1,173.52 Z" id="2" fill="#5D6063"></path>
            </g>
        </g>
    </g>
</svg>
